icons/battery-low-line.svg

<svg viewBox="0 0 24 24" fill="currentColor" xmlns="http://www.w3.org/2000/svg"><path d="M4 7V17H18V7H4ZM3 5H19C19.5523 5 20 5.44772 20 6V18C20 18.5523 19.5523 19 19 19H3C2.44772 19 2 18.5523 2 18V6C2 5.44772 2.44772 5 3 5ZM5 8H9V16H5V8ZM21 9H23V15H21V9Z"/></svg>

<svg xmlns="http://www.w3.org/2000/svg" viewBox="0 0 24 24">
    <g>
        <path fill="none" d="M0 0h24v24H0z"/>
        <path d="M4 7v10h14V7H4zM3 5h16a1 1 0 0 1 1 1v12a1 1 0 0 1-1 1H3a1 1 0 0 1-1-1V6a1 1 0 0 1 1-1zm2 3h4v8H5V8zm16 1h2v6h-2V9z"/>
    </g>
</svg>
